neru-light-classic/32x32/apps/7kaa.svg

<?xml version="1.0" encoding="UTF-8" standalone="no"?>
<svg
   xmlns:dc="http://purl.org/dc/elements/1.1/"
   xmlns:cc="http://creativecommons.org/ns#"
   xmlns:rdf="http://www.w3.org/1999/02/22-rdf-syntax-ns#"
   xmlns:svg="http://www.w3.org/2000/svg"
   xmlns="http://www.w3.org/2000/svg"
   xmlns:sodipodi="http://sodipodi.sourceforge.net/DTD/sodipodi-0.dtd"
   xmlns:inkscape="http://www.inkscape.org/namespaces/inkscape"
   width="32"
   height="32"
   version="1"
   id="svg26"
   sodipodi:docname="7kaa.svg"
   inkscape:version="0.92.1 r">
  <metadata
     id="metadata32">
    <rdf:RDF>
      <cc:Work
         rdf:about="">
        <dc:format>image/svg+xml</dc:format>
        <dc:type
           rdf:resource="http://purl.org/dc/dcmitype/StillImage" />
      </cc:Work>
    </rdf:RDF>
  </metadata>
  <defs
     id="defs30" />
  <sodipodi:namedview
     pagecolor="#ffffff"
     bordercolor="#666666"
     borderopacity="1"
     objecttolerance="10"
     gridtolerance="10"
     guidetolerance="10"
     inkscape:pageopacity="0"
     inkscape:pageshadow="2"
     inkscape:window-width="1680"
     inkscape:window-height="965"
     id="namedview28"
     showgrid="false"
     inkscape:zoom="10.429825"
     inkscape:cx="-5.7158068"
     inkscape:cy="12.132179"
     inkscape:window-x="0"
     inkscape:window-y="0"
     inkscape:window-maximized="1"
     inkscape:current-layer="svg26" />
  <rect
     style="opacity:1;fill:#ffb73c;fill-opacity:1;fill-rule:evenodd;stroke:none;stroke-width:1.03534329;stroke-linecap:round;stroke-linejoin:bevel;stroke-miterlimit:4;stroke-dasharray:none;stroke-dashoffset:0;stroke-opacity:1"
     id="rect4497-3"
     width="28.203388"
     height="28.203388"
     x="1.8983059"
     y="1.8983059"
     ry="5.575182" />
  <g
     id="g4523"
     transform="matrix(0.68260783,0,0,0.68260783,5.0782747,5.4195786)">
    <rect
       id="rect4"
       ry="2.75"
       rx="2.8"
       y="19"
       x="2"
       height="11"
       width="28"
       style="fill:#4f4f4f" />
    <path
       id="path6"
       d="M 12.335101,2 11.510603,4.4114355 9.5742185,2.730738 8.8962057,4.7092457 7.4313614,3.4366585 6.7101007,5.5433901 5.2871094,4.8484996 5.1308594,7.2309814 3.1442522,6.2603406 2.9796317,8.7806971 1,8.3891322 1.5050223,10.884671 5,19 H 27 L 30.494978,10.884671 31,8.3891322 29.020369,8.7806971 28.855748,6.2603406 26.869141,7.2309814 26.712891,4.8484996 25.289899,5.5433901 24.568639,3.4366585 23.103794,4.7092457 22.425781,2.730738 20.489397,4.4114355 19.664899,2 17.728516,3.6806974 17.434151,4.7657745 V 4.1425791 l -1.428571,-2.1177617 -0.0056,0.00827 -0.0056,-0.00827 -1.428571,2.1177617 V 4.7657745 L 14.271484,3.6806974 Z"
       style="fill:#4f4f4f"
       inkscape:connector-curvature="0" />
    <path
       id="path12"
       d="m 7.5,13.5 h 6 c -3.262756,3.411602 -4,5.571614 -4,10"
       style="fill:none;stroke:#ffb73c;stroke-width:3;stroke-linecap:round;stroke-linejoin:round"
       inkscape:connector-curvature="0" />
    <path
       id="path14"
       d="m 19.500219,13.5 v 10"
       style="fill:none;stroke:#ffb73c;stroke-width:3;stroke-linecap:round;stroke-linejoin:round"
       inkscape:connector-curvature="0" />
    <path
       id="path18"
       d="m 24.500219,13.5 -5,5.785712"
       style="fill:none;stroke:#ffb73c;stroke-width:3;stroke-linecap:round;stroke-linejoin:round"
       inkscape:connector-curvature="0" />
    <path
       id="path20"
       d="m 24.500219,23.5 -5,-5.642859"
       style="fill:none;stroke:#ffb73c;stroke-width:3;stroke-linecap:round;stroke-linejoin:round"
       inkscape:connector-curvature="0" />
    <path
       id="path22"
       transform="matrix(0.57535592,0,0,0.55363648,1.287187,-1.2145457)"
       d="M 25.571673,22.062393 15.143345,4.0000003 36,3.9999997 Z"
       style="fill:#f45151"
       inkscape:connector-curvature="0" />
  </g>
</svg>

<svg xmlns="http://www.w3.org/2000/svg" width="32" height="32" version="1"><rect width="28.203" height="28.203" x="1.898" y="1.898" ry="5.575" fill="#ffb73c" fill-rule="evenodd"/><g transform="matrix(.6826 0 0 .6826 5.078 5.42)"><rect ry="2.75" rx="2.8" y="19" x="2" height="11" width="28" fill="#4f4f4f"/><path d="M12.335 2l-.824 2.411-1.937-1.68-.678 1.978-1.465-1.272-.72 2.106-1.424-.695-.156 2.383-1.987-.97-.164 2.52L1 8.389l.505 2.496L5 19h22l3.495-8.115L31 8.389l-1.98.392-.164-2.52-1.987.97-.156-2.383-1.423.695-.721-2.106-1.465 1.272-.678-1.978-1.937 1.68L19.665 2l-1.936 1.68-.295 1.086v-.623l-1.428-2.118-.006.008-.006-.008-1.428 2.118v.623L14.27 3.68z" fill="#4f4f4f"/><path d="M7.5 13.5h6c-3.263 3.412-4 5.572-4 10M19.5 13.5v10M24.5 13.5l-5 5.786M24.5 23.5l-5-5.643" fill="none" stroke="#ffb73c" stroke-width="3" stroke-linecap="round" stroke-linejoin="round"/><path d="M16 11L10 1h12z" fill="#f45151"/></g></svg>
